!!!COM: Music21
!!!OTL: Muiñeira
!!!OMV: pezas_muineiras_muineira-58_muineira-partitura.musicxml
**kern
*I"Bagpipes
*I'Bag
*clefG^2
*k[]
*M6/8
=1
!LO:TX:a:t=Presto
*MM180
!LO:TX:a:t=[quarter]=180
4.r
8.ggL
16aaK
8bbJ
=||
8.cccL
16dddK
8cccJ
8.bbL
16aaK
8bbJ
=
4ccc
8gg
8.ccL
16eeK
8ggJ
=
8.ffL
16ddK
8bJ
8.ddL
16ffK
8aaJ
=
8.ggL
16eeK
8ccJ
8.ggL
16aaK
8bbJ
=
8.cccL
16dddK
8cccJ
8.bbL
16aaK
8bbJ
=
4ccc
8gg
8.ccL
16eeK
8ggJ
!!linebreak:original
=
8.ffL
16ddK
8bJ
8.ddL
16aaK
8ggJ
=
4cc
8r
8.ggL
16aaK
8bbJ
=||
8.cccL
16dddK
8cccJ
8.bbL
16aaK
8bbJ
=
4ccc
8gg
8.ccL
16eeK
8ggJ
=
8.ffL
16ddK
8bJ
8.ddL
16ffK
8aaJ
=
8.ggL
16eeK
8ccJ
8.ggL
16aaK
8bbJ
=
8.cccL
16dddK
8cccJ
8.bbL
16aaK
8bbJ
!!linebreak:original
=
4ccc
8gg
8.ccL
16eeK
8ggJ
!!linebreak:original
=
8.ffL
16ddK
8bJ
8.ddL
16aaK
8ggJ
=
4cc
8gg
8.ggL
16ffK
8eeJ
=||
8.eeL
16ddK
8eeJ
8.ggL
16ffK
8eeJ
=
4dd
8aa
8.aaL
16ggK
8ffJ
=
8.ffL
16eeK
8ffJ
8.aaL
16ggK
8ffJ
=
4ee
8ccc
8.cccL
16bbK
8aaJ
!!linebreak:original
=
4gg
8aa
8.aaL
16ggK
8ffJ
=
4ee
8ff
8.ffL
16eeK
8ddJ
=
8.ggL
16eeK
8ccJ
8.ddL
16eeK
8ddJ
=
4cc
8gg
8.ggL
16ffK
8eeJ
=||
8.eeL
16ddK
8eeJ
8.ggL
16ffK
8eeJ
=
4dd
8aa
8.aaL
16ggK
8ffJ
=
8.ffL
16eeK
8ffJ
8.aaL
16ggK
8ffJ
!!linebreak:original
=
4ee
8ccc
8.cccL
16bbK
8aaJ
!!linebreak:original
=
4gg
8aa
8.aaL
16ggK
8ffJ
=
4ee
8ff
8.ffL
16eeK
8ddJ
=
8.ggL
16eeK
8ccJ
8.ddL
16eeK
8ddJ
=
4cc
8r
8.ggL
16aaK
8bbJ
=||
*-
